video-outline.svg

<svg fill="currentColor" viewBox="0 0 24 24"><path d="M15 8v8H5V8zm1-2H4a1 1 0 0 0-1 1v10a1 1 0 0 0 1 1h12a1 1 0 0 0 1-1v-3.5l4 4v-11l-4 4V7a1 1 0 0 0-1-1"/></svg>

<svg  viewBox="0 0 24 24" fill="currentColor"><path  d="M15,8V16H5V8H15M16,6H4A1,1 0 0,0 3,7V17A1,1 0 0,0 4,18H16A1,1 0 0,0 17,17V13.5L21,17.5V6.5L17,10.5V7A1,1 0 0,0 16,6Z"/></svg>
